!!!OTL: Media vita. / (15. Jahrh.)
!!!ARE: Europa, Mitteleuropa, Deutschland
!!!SCT: A0647A
!!!TXL: @@DE
!!!YEM: Copyright 1995, estate of Helmut Schaffrath.
**kern	**text
*M4/1	*
*clefC1	*
*k[]	*
*e:phr	*
!LO:TX:a:t=phryg.	!
2ryy	.
{2a	En-
=1	=1
1a	-mit-
1b	-ten
1g	in
1a	des
=2	=2
0b	le-
0cc	-bens
=3	=3
*lig	*
0b	ʒeyt
1a}	.
*Xlig	*
{1b	Sey
=4	=4
1cc	wir
1b	mit
1cc	tod
1a	vmb-
=5	=5
1g	-fan-
1a	.
1g	.
1f	.
=6	=6
!LO:TX:a:t=P:0e in the source:problem	!
!LO:N:vis=0	!
0.e}	-gen,}
{2r	.
2a	Wen
=7	=7
1a	ſuech
1b	wir
1g	der
1a	vns
=8	=8
0b	hilf-
0cc	-fe
=9	=9
*lig	*
0b	geit,
1a}	.
*Xlig	*
{1b	von
=10	=10
1cc	dem
1b	wir
1cc	huld
1a	er-
=11	=11
1g	-lan-
1a	.
1g	.
1f	.
=12	=12
!LO:TX:a:t=P:0e in the source:problem	!
!LO:N:vis=0	!
00e}	-gen?}
=13	=13
{1d	dann
1e	dich
1g	herr
1a	al-
=14	=14
*lig	*
2f	-lay-
2d	.
1e	.
*Xlig	*
*lig	*
1d	-ne,
2c}	.
*Xlig	*
{2d	der
=15	=15
1a	du
1g	vmb
1a	vn-
1b	-ſer
=16	=16
1cc	miſ-
1cc	-ſe-
1b	-tat
1a	recht-
=17	=17
1g	-li-
1e	-chen
1f	ʒur-
1g	-nen
=18	=18
!LO:TX:a:t=P:0e in the source:problem	!
!LO:N:vis=0	!
00e}	thuſt,
=19||	=19||
{0a	hey-
1g	-li-
1e	-ger
=20	=20
1f	her-
1g	-re
1e	got,
1r}	.
=21	=21
{0a	hey-
1g	-li-
1e	-ger
=22	=22
1f	ſter-
1g	-cker
1e	got,
1r}	.
=23	=23
{1a	heyli-
1g	.
1a	-ger
1b	parmher-
=24	=24
0cc	.
1b	-tʒi-
1a	-ger
=25	=25
1g	hai-
1e	-ler
*lig	*
!LO:TX:a:t=P:0f in the source:problem	!
!LO:N:vis=0	!
1f	e-
!LO:TX:a:t=P:0a in the source:problem	!
!LO:N:vis=0	!
1a	.
*Xlig	*
=26	=26
1f	-wi-
1e	-ger
1d	got,
1r}	.
=27	=27
{1a	laʒ
1g	vns
1a	nit
1b	ge-
=28	=28
0cc	-wal-
1b	-den
1a	des
=29	=29
1g	pit-
1e	-tern
1f	to-
1g	-des
=30	=30
0.e/ll}	pott.
==	==
!!!GTL: Geistliche Volkslieder
!!!AGN: Romanze, Ballade, Lied, religioeses Lied
!! Muenchner Cod. 15. Jh.
!!!ONB: ESAC (Essen Associative Code) Database: ALTDEU
!!!AMT: simple quadruple
!!!AIN: vox
!!!EED: Helmut Schaffrath
!!!EEV: 1.0
!!!RDF**kern: l = terminal long
!!!AMD: Phrygian
!!!URL-scan: https://rosdok.uni-rostock.de/mcrviewer/recordIdentifier/rosdok_ppn738218359/iview2/phys_0828.iview2?x=-495.6391625615763&y=954.7635467979126&scale=0.4629418472063854&rotation=0&layout=singlePageLayout
!!!ENC: Anna Maria Matuszewska
!!!EEV: 2024/25/03
*-	*-
